src/app/assets/icon/contrato-icon.svg

<svg width="31" height="33" viewBox="0 0 31 33" fill="none" xmlns="http://www.w3.org/2000/svg">
<g id="Capa_1" clip-path="url(#clip0_2044_164)">
<path id="Vector" d="M1.19848 28.0541C1.08811 28.0541 0.998442 27.9651 0.998442 27.8555V1.18982C0.998442 1.08026 1.08811 0.991233 1.19848 0.991233H21.2415C21.3518 0.991233 21.4415 1.08026 21.4415 1.18982V10.3848C21.6002 10.33 21.7674 10.2992 21.9399 10.2992C22.1123 10.2992 22.2796 10.3283 22.4382 10.3848V1.18982C22.4382 0.534136 21.9002 0 21.2397 0H1.19848C0.538021 0 0 0.534136 0 1.18982V27.8555C0 28.5112 0.538021 29.0453 1.19848 29.0453H15.7492C15.4991 28.7235 15.2612 28.3931 15.0335 28.0541H1.19848Z" fill="#FFD95D"/>
<path id="Vector_2" d="M17.3029 6.42505H5.13703C4.86112 6.42505 4.63867 6.64589 4.63867 6.91981C4.63867 7.19372 4.86112 7.41457 5.13703 7.41457H17.3029C17.5788 7.41457 17.8012 7.19372 17.8012 6.91981C17.8012 6.64589 17.5788 6.42505 17.3029 6.42505Z" fill="#FFD95D"/>
<path id="Vector_3" d="M17.8012 11.9889C17.8012 11.715 17.5788 11.4941 17.3029 11.4941H5.13703C4.86112 11.4941 4.63867 11.715 4.63867 11.9889C4.63867 12.2628 4.86112 12.4837 5.13703 12.4837H17.3029C17.5788 12.4837 17.8012 12.2628 17.8012 11.9889Z" fill="#FFD95D"/>
<path id="Vector_4" d="M5.13703 17.551H11.8813V16.5598H5.13703C4.86112 16.5598 4.63867 16.7807 4.63867 17.0546C4.63867 17.3285 4.86112 17.5493 5.13703 17.5493V17.551Z" fill="#FFD95D"/>
<path id="Vector_5" d="M5.13703 22.6187H12.5348C12.4451 22.2917 12.3658 21.9613 12.2934 21.6274H5.13703C4.86112 21.6274 4.63867 21.8483 4.63867 22.1222C4.63867 22.3961 4.86112 22.617 5.13703 22.617V22.6187Z" fill="#FFD95D"/>
<path id="Vector_6" d="M30.5018 14.9199C27.1564 14.9199 24.0886 13.6531 22.4384 11.6072C22.4056 11.5662 22.3694 11.5268 22.3366 11.484C22.2418 11.3607 22.0952 11.2888 21.94 11.2888C21.7848 11.2888 21.6382 11.3607 21.5434 11.484C21.5106 11.5251 21.4744 11.5662 21.4417 11.6072C19.7914 13.6531 16.7236 14.9199 13.3782 14.9199C13.1023 14.9199 12.8799 15.1408 12.8799 15.4147V17.796C12.8799 19.0988 13.0299 20.3811 13.3144 21.6274C13.3903 21.9613 13.4765 22.29 13.5731 22.6187C14.1422 24.572 15.0509 26.4124 16.2511 28.0542C16.4995 28.3931 16.7598 28.7236 17.0323 29.0454C18.3308 30.5793 19.8983 31.9027 21.6917 32.935C21.7693 32.9795 21.8555 33.0018 21.9417 33.0018C22.028 33.0018 22.1142 32.9795 22.1918 32.935C27.6272 29.8089 31.0019 24.0088 31.0019 17.7995V15.4181C31.0019 15.1442 30.7794 14.9233 30.5035 14.9233L30.5018 14.9199ZM30.0034 17.7977C30.0034 23.5602 26.9219 28.9478 21.94 31.9301C20.6019 31.1289 19.4017 30.1531 18.3618 29.0437C18.0618 28.7236 17.7738 28.3949 17.5013 28.0525C16.208 26.4364 15.2268 24.5909 14.6129 22.6169C14.5112 22.29 14.4198 21.9595 14.3387 21.6257C14.037 20.3828 13.8766 19.0988 13.8766 17.7943V15.8992C16.8616 15.793 19.6172 14.7436 21.4417 13.0556C21.6158 12.8946 21.7848 12.7303 21.94 12.5574C22.0969 12.7303 22.2642 12.8946 22.4384 13.0556C24.2628 14.7436 27.0184 15.793 30.0034 15.8992V17.7943V17.7977Z" fill="#FFD95D"/>
<path id="Vector_7" d="M21.5776 25.7721L21.4414 25.6009L18.0512 21.3192C17.8805 21.1052 17.5666 21.0676 17.3511 21.2353C17.2252 21.3346 17.1614 21.4801 17.1631 21.6291C17.1631 21.7352 17.1976 21.8414 17.2683 21.9304L17.6787 22.4474L21.2103 26.9088C21.2707 26.9859 21.3535 27.0389 21.4431 27.068C21.4949 27.0851 21.5466 27.0971 21.6018 27.0971C21.607 27.0971 21.6104 27.0971 21.6156 27.0971C21.7742 27.092 21.9191 27.015 22.0105 26.8866L22.4399 26.2771L27.7218 18.7855C27.8804 18.5612 27.8252 18.2531 27.5993 18.0956C27.3734 17.9381 27.063 17.9929 26.9044 18.2171L22.4399 24.5497L21.5776 25.7721Z" fill="#FFD95D"/>
</g>
<defs>
<clipPath id="clip0_2044_164">
<rect width="31" height="33" fill="white"/>
</clipPath>
</defs>
</svg>

<?xml version="1.0" encoding="utf-8"?>
<!-- Generator: Adobe Illustrator 28.2.0, SVG Export Plug-In . SVG Version: 6.00 Build 0)  -->
<svg version="1.1" id="Capa_1" xmlns="http://www.w3.org/2000/svg" xmlns:xlink="http://www.w3.org/1999/xlink" x="0px" y="0px"
	 viewBox="0 0 31 33" style="enable-background:new 0 0 31 33;" xml:space="preserve">
<style type="text/css">
	.st0{fill:#FFFFFF;}
</style>
<g>
	<g id="Capa_1_00000021118338157652308090000000926577431783111050_">
		<path id="Vector" class="st0" d="M1.2,28.1C1.1,28.1,1,28,1,27.9V1.2C1,1.1,1.1,1,1.2,1h20c0.1,0,0.2,0.1,0.2,0.2v9.2
			c0.2-0.1,0.3-0.1,0.5-0.1c0.2,0,0.3,0,0.5,0.1V1.2c0-0.7-0.5-1.2-1.2-1.2h-20C0.5,0,0,0.5,0,1.2v26.7C0,28.5,0.5,29,1.2,29h14.6
			c-0.3-0.3-0.5-0.7-0.7-1H1.2z"/>
		<path id="Vector_2" class="st0" d="M17.3,6.4H5.1c-0.3,0-0.5,0.2-0.5,0.5c0,0.3,0.2,0.5,0.5,0.5h12.2c0.3,0,0.5-0.2,0.5-0.5
			C17.8,6.6,17.6,6.4,17.3,6.4z"/>
		<path id="Vector_3" class="st0" d="M17.8,12c0-0.3-0.2-0.5-0.5-0.5H5.1c-0.3,0-0.5,0.2-0.5,0.5s0.2,0.5,0.5,0.5h12.2
			C17.6,12.5,17.8,12.3,17.8,12z"/>
		<path id="Vector_4" class="st0" d="M5.1,17.6h6.7v-1H5.1c-0.3,0-0.5,0.2-0.5,0.5C4.6,17.3,4.9,17.5,5.1,17.6L5.1,17.6z"/>
		<path id="Vector_5" class="st0" d="M5.1,22.6h7.4c-0.1-0.3-0.2-0.7-0.2-1H5.1c-0.3,0-0.5,0.2-0.5,0.5S4.9,22.6,5.1,22.6L5.1,22.6z
			"/>
		<path id="Vector_6" class="st0" d="M30.5,14.9c-3.3,0-6.4-1.3-8.1-3.3c0,0-0.1-0.1-0.1-0.1c-0.1-0.1-0.2-0.2-0.4-0.2
			c-0.2,0-0.3,0.1-0.4,0.2c0,0-0.1,0.1-0.1,0.1c-1.7,2-4.7,3.3-8.1,3.3c-0.3,0-0.5,0.2-0.5,0.5v2.4c0,1.3,0.1,2.6,0.4,3.8
			c0.1,0.3,0.2,0.7,0.3,1c0.6,2,1.5,3.8,2.7,5.4c0.2,0.3,0.5,0.7,0.8,1c1.3,1.5,2.9,2.9,4.7,3.9c0.1,0,0.2,0.1,0.2,0.1
			c0.1,0,0.2,0,0.3-0.1C27.6,29.8,31,24,31,17.8v-2.4C31,15.1,30.8,14.9,30.5,14.9L30.5,14.9z M30,17.8c0,5.8-3.1,11.2-8.1,14.1
			c-1.3-0.8-2.5-1.8-3.6-2.9c-0.3-0.3-0.6-0.6-0.9-1c-1.3-1.6-2.3-3.5-2.9-5.4c-0.1-0.3-0.2-0.7-0.3-1c-0.3-1.2-0.5-2.5-0.5-3.8
			v-1.9c3-0.1,5.7-1.2,7.6-2.8c0.2-0.2,0.3-0.3,0.5-0.5c0.2,0.2,0.3,0.3,0.5,0.5c1.8,1.7,4.6,2.7,7.6,2.8V17.8L30,17.8z"/>
		<path id="Vector_7" class="st0" d="M21.6,25.8l-0.1-0.2l-3.4-4.3c-0.2-0.2-0.5-0.3-0.7-0.1c-0.1,0.1-0.2,0.2-0.2,0.4
			c0,0.1,0,0.2,0.1,0.3l0.4,0.5l3.5,4.5c0.1,0.1,0.1,0.1,0.2,0.2c0.1,0,0.1,0,0.2,0c0,0,0,0,0,0c0.2,0,0.3-0.1,0.4-0.2l0.4-0.6
			l5.3-7.5c0.2-0.2,0.1-0.5-0.1-0.7c-0.2-0.2-0.5-0.1-0.7,0.1l-4.5,6.3L21.6,25.8z"/>
	</g>
</g>
</svg>
